X: 37178
T: Sir John Fenwick's The Flower Amang Them A'
R: waltz
M: 3/4
K: Dmajor
|D2 DE FG|A2 AB d2|A2 AB d2|BA GF ED|
E2 EF GA|B2 Bc d2|B2 Bc d2|B4 A2|
D2 DE FG|A2 AB d2|A2 AB d2|BA GF EF|
G2 AG FE|F2 GF ED|E2 F2 A2|B4 A2:|
d2 D2 d2|d2 D2 d2|d2 D2 d2|BA GF ED|
e2 E2 e2|e2 E2 e2|e2 E2 e2|dc BA Bc|
d2 D2 d2|d2 D2 d2|d2 D2 d2|BA GF EF|
G2 AG FE|F2 GF ED|E2 F2 A2|B4 A2:|

